; generated by PrusaSlicer 2.4.1+x64 on 2022-03-19 at 10:20:54 UTC

; 

; external perimeters extrusion width = 0.60mm
; perimeters extrusion width = 0.50mm
; infill extrusion width = 0.50mm
; solid infill extrusion width = 0.50mm
; top infill extrusion width = 0.45mm
; first layer extrusion width = 0.42mm

M73 P0 R496
M73 Q0 S499
M201 X1000 Y1000 Z200 E5000 ; sets maximum accelerations, mm/sec^2
M203 X200 Y200 Z12 E120 ; sets maximum feedrates, mm / sec
M204 P1250 R1250 T1250 ; sets acceleration (P, T) and retract acceleration (R), mm/sec^2
M205 X8.00 Y8.00 Z0.40 E4.50 ; sets the jerk limits, mm/sec
M205 S0 T0 ; sets the minimum extruding and travel feed rate, mm/sec
M107
;TYPE:Custom
M862.3 P "MK3S" ; printer model check
M862.1 P0.4 ; nozzle diameter check
M115 U3.10.1 ; tell printer latest fw version
G90 ; use absolute coordinates
M83 ; extruder relative mode
M104 S215 ; set extruder temp
M140 S60 ; set bed temp
M190 S60 ; wait for bed temp
M109 S215 ; wait for extruder temp
G28 W ; home all without mesh bed level
G80 ; mesh bed leveling
G1 Z0.2 F720
G1 Y-3 F1000 ; go outside print area
G92 E0
G1 X60 E9 F1000 ; intro line
G1 X100 E12.5 F1000 ; intro line
G92 E0
M221 S95

; Don't change E values below. Excessive value can damage the printer.

M907 E538 ; set extruder motor current
G21 ; set units to millimeters
G90 ; use absolute coordinates
M83 ; use relative distances for extrusion
M900 K0.05 ; Filament gcode LA 1.5
M900 K30 ; Filament gcode LA 1.0
M107
;LAYER_CHANGE
;Z:0.2
;HEIGHT:0.2
;BEFORE_LAYER_CHANGE
G92 E0.0
;0.2


G1 E-.8 F2100
G1 Z.4 F720
;AFTER_LAYER_CHANGE
;0.2
G1 X63.015 Y23.693 F10800
G1 Z.2 F720
G1 E.8 F2100
M204 S800
;TYPE:Skirt/Brim
;WIDTH:0.42
G1 F1200
G1 X64.06 Y22.817 E.04278
G1 X65 Y22.623 E.03008
G1 X185 Y22.623 E3.76252
G1 X186.307 Y23.015 E.04278
G1 X187.183 Y24.06 E.04278
G1 X187.377 Y25 E.03008
G1 X187.377 Y185 E5.01669
G1 X186.985 Y186.307 E.04278
G1 X185.94 Y187.183 E.04278
G1 X185 Y187.377 E.03008
G1 X65 Y187.377 E3.76252
G1 X63.693 Y186.985 E.04278
G1 X62.817 Y185.94 E.04278
G1 X62.623 Y185 E.03008
G1 X62.623 Y25 E5.01669
G1 X62.997 Y23.75 E.0409
M204 S1000
; printing object drawer-box.stl id:0 copy 0
;WIPE_START
M73 P0 R495
G1 F8640
G1 X64.06 Y22.817 E-.32671
G1 X65 Y22.623 E-.22155
G1 X65.917 Y22.623 E-.21174
;WIPE_END
G1 E-.04 F2100
G1 Z.6 F720
G1 X65.787 Y25.787 F10800
G1 Z.2 F720
G1 E.8 F2100
M204 S800
;TYPE:Perimeter
G1 F1200
G1 X184.213 Y25.787 E3.71316
G1 X184.213 Y184.213 E4.96733
G1 X65.787 Y184.213 E3.71316
M73 Q0 S498
G1 X65.787 Y25.847 E4.96545
M204 S1000
G1 X65.41 Y25.41 F10800
M204 S800
;TYPE:External perimeter
G1 F1200
G1 X184.59 Y25.41 E3.73681
G1 X184.59 Y184.59 E4.99098
G1 X65.41 Y184.59 E3.73681
G1 X65.41 Y25.47 E4.9891
M204 S1000
G1 X65.791 Y25.532 F10800
;WIPE_START
M73 P0 R494
G1 F8640
G1 X68.701 Y25.468 E-.76
;WIPE_END
G1 E-.04 F2100
G1 Z.6 F720
G1 X183.337 Y25.9 F10800
G1 Z.2 F720
G1 E.8 F2100
M204 S800
;TYPE:Solid infill
;WIDTH:0.420327
G1 F1200
G1 X183.93 Y26.493 E.02633
G1 X183.93 Y27.027 E.01675
G1 X182.973 Y26.07 E.04249
G1 X182.439 Y26.07 E.01675
G1 X183.93 Y27.561 E.06617
G1 X183.93 Y28.095 E.01675
G1 X181.905 Y26.07 E.08986
G1 X181.372 Y26.07 E.01675
G1 X183.93 Y28.628 E.11355
G1 X183.93 Y29.162 E.01675
G1 X180.838 Y26.07 E.13724
G1 X180.304 Y26.07 E.01675
G1 X183.93 Y29.696 E.16092
G1 X183.93 Y30.23 E.01675
G1 X179.77 Y26.07 E.18461
G1 X179.237 Y26.07 E.01675
G1 X183.93 Y30.763 E.2083
G1 X183.93 Y31.297 E.01675
G1 X178.703 Y26.07 E.23198
G1 X178.169 Y26.07 E.01675
G1 X183.93 Y31.831 E.25567
G1 X183.93 Y32.365 E.01675
G1 X177.635 Y26.07 E.27936
G1 X177.102 Y26.07 E.01675
G1 X183.93 Y32.898 E.30305
G1 X183.93 Y33.432 E.01675
G1 X176.568 Y26.07 E.32673
G1 X176.034 Y26.07 E.01675
G1 X183.93 Y33.966 E.35042
G1 X183.93 Y34.499 E.01675
G1 X175.501 Y26.07 E.37411
G1 X174.967 Y26.07 E.01675
G1 X183.93 Y35.033 E.39779
G1 X183.93 Y35.567 E.01675
G1 X174.433 Y26.07 E.42148
G1 X173.899 Y26.07 E.01675
G1 X183.93 Y36.101 E.44517
G1 X183.93 Y36.634 E.01675
G1 X173.366 Y26.07 E.46886
G1 X172.832 Y26.07 E.01675
G1 X183.93 Y37.168 E.49254
G1 X183.93 Y37.702 E.01675
M73 Q0 S497
G1 X172.298 Y26.07 E.51623
G1 X171.764 Y26.07 E.01675
G1 X183.93 Y38.236 E.53992
G1 X183.93 Y38.769 E.01675
G1 X171.231 Y26.07 E.56361
G1 X170.697 Y26.07 E.01675
G1 X183.93 Y39.303 E.58729
G1 X183.93 Y39.837 E.01675
G1 X170.163 Y26.07 E.61098
G1 X169.629 Y26.07 E.01675
G1 X183.93 Y40.371 E.63467
G1 X183.93 Y40.904 E.01675
G1 X169.096 Y26.07 E.65835
G1 X168.562 Y26.07 E.01675
G1 X183.93 Y41.438 E.68204
G1 X183.93 Y41.972 E.01675
G1 X168.028 Y26.07 E.70573
G1 X167.495 Y26.07 E.01675
G1 X183.93 Y42.505 E.72942
G1 X183.93 Y43.039 E.01675
G1 X166.961 Y26.07 E.7531
G1 X166.427 Y26.07 E.01675
G1 X183.93 Y43.573 E.77679
G1 X183.93 Y44.107 E.01675
G1 X165.893 Y26.07 E.80048
G1 X165.36 Y26.07 E.01675
G1 X183.93 Y44.64 E.82416
G1 X183.93 Y45.174 E.01675
G1 X164.826 Y26.07 E.84785
G1 X164.292 Y26.07 E.01675
G1 X183.93 Y45.708 E.87154
G1 X183.93 Y46.242 E.01675
G1 X163.758 Y26.07 E.89523
G1 X163.225 Y26.07 E.01675
G1 X183.93 Y46.775 E.91891
G1 X183.93 Y47.309 E.01675
G1 X162.691 Y26.07 E.9426
G1 X162.157 Y26.07 E.01675
G1 X183.93 Y47.843 E.96629
G1 X183.93 Y48.377 E.01675
G1 X161.623 Y26.07 E.98997
G1 X161.09 Y26.07 E.01675
G1 X183.93 Y48.91 E1.01366
G1 X183.93 Y49.444 E.01675
G1 X160.556 Y26.07 E1.03735
G1 X160.022 Y26.07 E.01675
G1 X183.93 Y49.978 E1.06104
G1 X183.93 Y50.512 E.01675
G1 X159.488 Y26.07 E1.08472
G1 X158.955 Y26.07 E.01675
G1 X183.93 Y51.045 E1.10841
G1 X183.93 Y51.579 E.01675
G1 X158.421 Y26.07 E1.1321
G1 X157.887 Y26.07 E.01675
G1 X183.93 Y52.113 E1.15579
G1 X183.93 Y52.646 E.01675
G1 X157.354 Y26.07 E1.17947
G1 X156.82 Y26.07 E.01675
G1 X183.93 Y53.18 E1.20316
G1 X183.93 Y53.714 E.01675
G1 X156.286 Y26.07 E1.22685
G1 X155.752 Y26.07 E.01675
G1 X183.93 Y54.248 E1.25053
G1 X183.93 Y54.781 E.01675
G1 X155.219 Y26.07 E1.27422
G1 X154.685 Y26.07 E.01675
G1 X183.93 Y55.315 E1.29791
G1 X183.93 Y55.849 E.01675
M73 P0 R493
G1 X154.151 Y26.07 E1.3216
G1 X153.617 Y26.07 E.01675
G1 X183.93 Y56.383 E1.34528
G1 X183.93 Y56.916 E.01675
G1 X153.084 Y26.07 E1.36897
G1 X152.55 Y26.07 E.01675
G1 X183.93 Y57.45 E1.39266
G1 X183.93 Y57.984 E.01675
G1 X152.016 Y26.07 E1.41634
G1 X151.482 Y26.07 E.01675
M73 Q0 S496
G1 X183.93 Y58.518 E1.44003
G1 X183.93 Y59.051 E.01675
G1 X150.949 Y26.07 E1.46372
G1 X150.415 Y26.07 E.01675
G1 X183.93 Y59.585 E1.48741
G1 X183.93 Y60.119 E.01675
G1 X149.881 Y26.07 E1.51109
G1 X149.348 Y26.07 E.01675
G1 X183.93 Y60.652 E1.53478
G1 X183.93 Y61.186 E.01675
G1 X148.814 Y26.07 E1.55847
G1 X148.28 Y26.07 E.01675
G1 X183.93 Y61.72 E1.58216
G1 X183.93 Y62.254 E.01675
G1 X147.746 Y26.07 E1.60584
G1 X147.213 Y26.07 E.01675
G1 X183.93 Y62.787 E1.62953
G1 X183.93 Y63.321 E.01675
G1 X146.679 Y26.07 E1.65322
G1 X146.145 Y26.07 E.01675
G1 X183.93 Y63.855 E1.6769
G1 X183.93 Y64.389 E.01675
G1 X145.611 Y26.07 E1.70059
G1 X145.078 Y26.07 E.01675
G1 X183.93 Y64.922 E1.72428
G1 X183.93 Y65.456 E.01675
G1 X144.544 Y26.07 E1.74797
G1 X144.01 Y26.07 E.01675
G1 X183.93 Y65.99 E1.77165
G1 X183.93 Y66.524 E.01675
G1 X143.476 Y26.07 E1.79534
G1 X142.943 Y26.07 E.01675
G1 X183.93 Y67.057 E1.81903
G1 X183.93 Y67.591 E.01675
G1 X142.409 Y26.07 E1.84271
G1 X141.875 Y26.07 E.01675
M73 P0 R492
G1 X183.93 Y68.125 E1.8664
G1 X183.93 Y68.658 E.01675
G1 X141.342 Y26.07 E1.89009
G1 X140.808 Y26.07 E.01675
G1 X183.93 Y69.192 E1.91378
G1 X183.93 Y69.726 E.01675
G1 X140.274 Y26.07 E1.93746
G1 X139.74 Y26.07 E.01675
M73 Q0 S495
G1 X183.93 Y70.26 E1.96115
G1 X183.93 Y70.793 E.01675
G1 X139.207 Y26.07 E1.98484
G1 X138.673 Y26.07 E.01675
G1 X183.93 Y71.327 E2.00852
G1 X183.93 Y71.861 E.01675
G1 X138.139 Y26.07 E2.03221
G1 X137.605 Y26.07 E.01675
G1 X183.93 Y72.395 E2.0559
G1 X183.93 Y72.928 E.01675
G1 X137.072 Y26.07 E2.07959
G1 X136.538 Y26.07 E.01675
G1 X183.93 Y73.462 E2.10327
G1 X183.93 Y73.996 E.01675
G1 X136.004 Y26.07 E2.12696
G1 X135.47 Y26.07 E.01675
G1 X183.93 Y74.53 E2.15065
G1 X183.93 Y75.063 E.01675
G1 X134.937 Y26.07 E2.17434
G1 X134.403 Y26.07 E.01675
G1 X183.93 Y75.597 E2.19802
G1 X183.93 Y76.131 E.01675
G1 X133.869 Y26.07 E2.22171
G1 X133.336 Y26.07 E.01675
G1 X183.93 Y76.664 E2.2454
G1 X183.93 Y77.198 E.01675
G1 X132.802 Y26.07 E2.26908
G1 X132.268 Y26.07 E.01675
M73 P0 R491
G1 X183.93 Y77.732 E2.29277
G1 X183.93 Y78.266 E.01675
G1 X131.734 Y26.07 E2.31646
G1 X131.201 Y26.07 E.01675
G1 X183.93 Y78.799 E2.34015
G1 X183.93 Y79.333 E.01675
M73 Q0 S494
G1 X130.667 Y26.07 E2.36383
G1 X130.133 Y26.07 E.01675
G1 X183.93 Y79.867 E2.38752
G1 X183.93 Y80.401 E.01675
G1 X129.599 Y26.07 E2.41121
G1 X129.066 Y26.07 E.01675
G1 X183.93 Y80.934 E2.43489
G1 X183.93 Y81.468 E.01675
M73 P1 R491
G1 X128.532 Y26.07 E2.45858
G1 X127.998 Y26.07 E.01675
M73 Q1 S494
G1 X183.93 Y82.002 E2.48227
G1 X183.93 Y82.536 E.01675
G1 X127.464 Y26.07 E2.50596
G1 X126.931 Y26.07 E.01675
G1 X183.93 Y83.069 E2.52964
G1 X183.93 Y83.603 E.01675
G1 X126.397 Y26.07 E2.55333
G1 X125.863 Y26.07 E.01675
G1 X183.93 Y84.137 E2.57702
G1 X183.93 Y84.67 E.01675
G1 X125.33 Y26.07 E2.60071
G1 X124.796 Y26.07 E.01675
G1 X183.93 Y85.204 E2.62439
G1 X183.93 Y85.738 E.01675
G1 X124.262 Y26.07 E2.64808
G1 X123.728 Y26.07 E.01675
M73 P1 R490
G1 X183.93 Y86.272 E2.67177
G1 X183.93 Y86.805 E.01675
G1 X123.195 Y26.07 E2.69545
G1 X122.661 Y26.07 E.01675
M73 Q1 S493
G1 X183.93 Y87.339 E2.71914
G1 X183.93 Y87.873 E.01675
G1 X122.127 Y26.07 E2.74283
G1 X121.593 Y26.07 E.01675
G1 X183.93 Y88.407 E2.76652
G1 X183.93 Y88.94 E.01675
G1 X121.06 Y26.07 E2.7902
G1 X120.526 Y26.07 E.01675
G1 X183.93 Y89.474 E2.81389
G1 X183.93 Y90.008 E.01675
G1 X119.992 Y26.07 E2.83758
G1 X119.458 Y26.07 E.01675
G1 X183.93 Y90.542 E2.86126
G1 X183.93 Y91.075 E.01675
G1 X118.925 Y26.07 E2.88495
G1 X118.391 Y26.07 E.01675
G1 X183.93 Y91.609 E2.90864
G1 X183.93 Y92.143 E.01675
G1 X117.857 Y26.07 E2.93233
G1 X117.324 Y26.07 E.01675
G1 X183.93 Y92.676 E2.95601
G1 X183.93 Y93.21 E.01675
M73 P1 R489
G1 X116.79 Y26.07 E2.9797
G1 X116.256 Y26.07 E.01675
G1 X183.93 Y93.744 E3.00339
G1 X183.93 Y94.278 E.01675
M73 Q1 S492
G1 X115.722 Y26.07 E3.02708
G1 X115.189 Y26.07 E.01675
G1 X183.93 Y94.811 E3.05076
G1 X183.93 Y95.345 E.01675
G1 X114.655 Y26.07 E3.07445
G1 X114.121 Y26.07 E.01675
G1 X183.93 Y95.879 E3.09814
G1 X183.93 Y96.413 E.01675
G1 X113.587 Y26.07 E3.12182
G1 X113.054 Y26.07 E.01675
G1 X183.93 Y96.946 E3.14551
G1 X183.93 Y97.48 E.01675
G1 X112.52 Y26.07 E3.1692
G1 X111.986 Y26.07 E.01675
G1 X183.93 Y98.014 E3.19289
G1 X183.93 Y98.548 E.01675
G1 X111.452 Y26.07 E3.21657
G1 X110.919 Y26.07 E.01675
G1 X183.93 Y99.081 E3.24026
G1 X183.93 Y99.615 E.01675
M73 P1 R488
G1 X110.385 Y26.07 E3.26395
G1 X109.851 Y26.07 E.01675
G1 X183.93 Y100.149 E3.28763
G1 X183.93 Y100.683 E.01675
M73 Q1 S491
G1 X109.317 Y26.07 E3.31132
G1 X108.784 Y26.07 E.01675
G1 X183.93 Y101.216 E3.33501
G1 X183.93 Y101.75 E.01675
G1 X108.25 Y26.07 E3.3587
G1 X107.716 Y26.07 E.01675
G1 X183.93 Y102.284 E3.38238
G1 X183.93 Y102.817 E.01675
G1 X107.183 Y26.07 E3.40607
G1 X106.649 Y26.07 E.01675
G1 X183.93 Y103.351 E3.42976
G1 X183.93 Y103.885 E.01675
G1 X106.115 Y26.07 E3.45344
G1 X105.581 Y26.07 E.01675
G1 X183.93 Y104.419 E3.47713
G1 X183.93 Y104.952 E.01675
G1 X105.048 Y26.07 E3.50082
G1 X104.514 Y26.07 E.01675
M73 P1 R487
G1 X183.93 Y105.486 E3.52451
G1 X183.93 Y106.02 E.01675
G1 X103.98 Y26.07 E3.54819
G1 X103.446 Y26.07 E.01675
M73 Q1 S490
G1 X183.93 Y106.554 E3.57188
G1 X183.93 Y107.087 E.01675
G1 X102.913 Y26.07 E3.59557
G1 X102.379 Y26.07 E.01675
G1 X183.93 Y107.621 E3.61926
G1 X183.93 Y108.155 E.01675
G1 X101.845 Y26.07 E3.64294
G1 X101.311 Y26.07 E.01675
G1 X183.93 Y108.689 E3.66663
G1 X183.93 Y109.222 E.01675
G1 X100.778 Y26.07 E3.69032
G1 X100.244 Y26.07 E.01675
G1 X183.93 Y109.756 E3.714
G1 X183.93 Y110.29 E.01675
G1 X99.71 Y26.07 E3.73769
G1 X99.177 Y26.07 E.01675
M73 P1 R486
G1 X183.93 Y110.823 E3.76138
G1 X183.93 Y111.357 E.01675
G1 X98.643 Y26.07 E3.78507
G1 X98.109 Y26.07 E.01675
M73 Q1 S489
G1 X183.93 Y111.891 E3.80875
G1 X183.93 Y112.425 E.01675
G1 X97.575 Y26.07 E3.83244
G1 X97.042 Y26.07 E.01675
M73 P2 R486
G1 X183.93 Y112.958 E3.85613
G1 X183.93 Y113.492 E.01675
M73 Q2 S489
G1 X96.508 Y26.07 E3.87981
G1 X95.974 Y26.07 E.01675
G1 X183.93 Y114.026 E3.9035
G1 X183.93 Y114.56 E.01675
G1 X95.44 Y26.07 E3.92719
G1 X94.907 Y26.07 E.01675
G1 X183.93 Y115.093 E3.95088
G1 X183.93 Y115.627 E.01675
G1 X94.373 Y26.07 E3.97456
G1 X93.839 Y26.07 E.01675
M73 P2 R485
G1 X183.93 Y116.161 E3.99825
G1 X183.93 Y116.695 E.01675
G1 X93.305 Y26.07 E4.02194
G1 X92.772 Y26.07 E.01675
M73 Q2 S488
G1 X183.93 Y117.228 E4.04563
G1 X183.93 Y117.762 E.01675
G1 X92.238 Y26.07 E4.06931
G1 X91.704 Y26.07 E.01675
G1 X183.93 Y118.296 E4.093
G1 X183.93 Y118.829 E.01675
G1 X91.171 Y26.07 E4.11669
G1 X90.637 Y26.07 E.01675
G1 X183.93 Y119.363 E4.14037
G1 X183.93 Y119.897 E.01675
G1 X90.103 Y26.07 E4.16406
G1 X89.569 Y26.07 E.01675
G1 X183.93 Y120.431 E4.18775
G1 X183.93 Y120.964 E.01675
M73 P2 R484
G1 X89.036 Y26.07 E4.21144
G1 X88.502 Y26.07 E.01675
G1 X183.93 Y121.498 E4.23512
G1 X183.93 Y122.032 E.01675
M73 Q2 S487
G1 X87.968 Y26.07 E4.25881
G1 X87.434 Y26.07 E.01675
G1 X183.93 Y122.566 E4.2825
G1 X183.93 Y123.099 E.01675
G1 X86.901 Y26.07 E4.30618
G1 X86.367 Y26.07 E.01675
G1 X183.93 Y123.633 E4.32987
G1 X183.93 Y124.167 E.01675
G1 X85.833 Y26.07 E4.35356
G1 X85.299 Y26.07 E.01675
G1 X183.93 Y124.701 E4.37725
G1 X183.93 Y125.234 E.01675
G1 X84.766 Y26.07 E4.40093
G1 X84.232 Y26.07 E.01675
M73 P2 R483
G1 X183.93 Y125.768 E4.42462
G1 X183.93 Y126.302 E.01675
M73 Q2 S486
G1 X83.698 Y26.07 E4.44831
G1 X83.165 Y26.07 E.01675
G1 X183.93 Y126.835 E4.472
G1 X183.93 Y127.369 E.01675
G1 X82.631 Y26.07 E4.49568
G1 X82.097 Y26.07 E.01675
G1 X183.93 Y127.903 E4.51937
G1 X183.93 Y128.437 E.01675
G1 X81.563 Y26.07 E4.54306
G1 X81.03 Y26.07 E.01675
G1 X183.93 Y128.97 E4.56674
G1 X183.93 Y129.504 E.01675
G1 X80.496 Y26.07 E4.59043
G1 X79.962 Y26.07 E.01675
M73 P2 R482
G1 X183.93 Y130.038 E4.61412
G1 X183.93 Y130.572 E.01675
G1 X79.428 Y26.07 E4.63781
G1 X78.895 Y26.07 E.01675
M73 Q2 S485
G1 X183.93 Y131.105 E4.66149
G1 X183.93 Y131.639 E.01675
G1 X78.361 Y26.07 E4.68518
G1 X77.827 Y26.07 E.01675
G1 X183.93 Y132.173 E4.70887
G1 X183.93 Y132.707 E.01675
G1 X77.293 Y26.07 E4.73255
G1 X76.76 Y26.07 E.01675
G1 X183.93 Y133.24 E4.75624
G1 X183.93 Y133.774 E.01675
G1 X76.226 Y26.07 E4.77993
G1 X75.692 Y26.07 E.01675
M73 P2 R481
G1 X183.93 Y134.308 E4.80362
G1 X183.93 Y134.841 E.01675
G1 X75.159 Y26.07 E4.8273
G1 X74.625 Y26.07 E.01675
M73 Q2 S484
G1 X183.93 Y135.375 E4.85099
G1 X183.93 Y135.909 E.01675
M73 P3 R481
G1 X74.091 Y26.07 E4.87468
G1 X73.557 Y26.07 E.01675
M73 Q3 S484
G1 X183.93 Y136.443 E4.89836
G1 X183.93 Y136.976 E.01675
G1 X73.024 Y26.07 E4.92205
G1 X72.49 Y26.07 E.01675
G1 X183.93 Y137.51 E4.94574
G1 X183.93 Y138.044 E.01675
G1 X71.956 Y26.07 E4.96943
G1 X71.422 Y26.07 E.01675
M73 P3 R480
G1 X183.93 Y138.578 E4.99311
G1 X183.93 Y139.111 E.01675
M73 Q3 S483
G1 X70.889 Y26.07 E5.0168
G1 X70.355 Y26.07 E.01675
G1 X183.93 Y139.645 E5.04049
G1 X183.93 Y140.179 E.01675
G1 X69.821 Y26.07 E5.06418
G1 X69.287 Y26.07 E.01675
G1 X183.93 Y140.713 E5.08786
G1 X183.93 Y141.246 E.01675
G1 X68.754 Y26.07 E5.11155
G1 X68.22 Y26.07 E.01675
G1 X183.93 Y141.78 E5.13524
G1 X183.93 Y142.314 E.01675
M73 P3 R479
G1 X67.686 Y26.07 E5.15892
G1 X67.152 Y26.07 E.01675
G1 X183.93 Y142.848 E5.18261
G1 X183.93 Y143.381 E.01675
M73 Q3 S482
G1 X66.619 Y26.07 E5.2063
G1 X66.085 Y26.07 E.01675
G1 X183.93 Y143.915 E5.22999
G1 X183.93 Y144.449 E.01675
G1 X66.07 Y26.588 E5.23066
G1 X66.07 Y27.122 E.01675
G1 X183.93 Y144.982 E5.23066
G1 X183.93 Y145.516 E.01675
G1 X66.07 Y27.656 E5.23066
G1 X66.07 Y28.19 E.01675
G1 X183.93 Y146.05 E5.23066
G1 X183.93 Y146.584 E.01675
M73 P3 R478
G1 X66.07 Y28.723 E5.23066
G1 X66.07 Y29.257 E.01675
M73 Q3 S481
G1 X183.93 Y147.117 E5.23066
G1 X183.93 Y147.651 E.01675
G1 X66.07 Y29.791 E5.23066
G1 X66.07 Y30.325 E.01675
G1 X183.93 Y148.185 E5.23066
G1 X183.93 Y148.719 E.01675
G1 X66.07 Y30.858 E5.23066
G1 X66.07 Y31.392 E.01675
